symbols/web/format_shapes/materialsymbolsrounded/format_shapes_wght700gradN25_24px.svg

<svg xmlns="http://www.w3.org/2000/svg" height="24" width="24"><path d="M2.025 23.475q-.625 0-1.062-.437-.438-.438-.438-1.063v-3.9q0-.625.438-1.063.437-.437 1.062-.437h.425v-9.15h-.425q-.6 0-1.05-.437-.45-.438-.45-1.063v-3.9q0-.625.438-1.063Q1.4.525 2.025.525h3.9q.625 0 1.063.437.437.438.437 1.063v.425h9.15v-.425q0-.625.437-1.063.438-.437 1.063-.437h3.9q.625 0 1.063.437.437.438.437 1.063v3.9q0 .625-.437 1.063-.438.437-1.063.437h-.425v9.15h.425q.625 0 1.063.437.437.438.437 1.063v3.9q0 .625-.437 1.063-.438.437-1.063.437h-3.9q-.625 0-1.063-.437-.437-.438-.437-1.063v-.425h-9.15v.425q0 .6-.437 1.05-.438.45-1.063.45Zm5.4-4.95h9.15v-.45q0-.625.437-1.063.438-.437 1.063-.437h.45v-9.15h-.45q-.625 0-1.063-.437-.437-.438-.437-1.063v-.45h-9.15v.45q0 .625-.437 1.063-.438.437-1.063.437h-.45v9.15h.45q.625 0 1.063.437.437.438.437 1.063Zm1.975-2.9q-.55 0-.812-.363-.263-.362-.063-.862L10.7 7.925q.1-.4.5-.65t.8-.25q.4 0 .775.25t.525.65l2.225 6.425q.2.525-.075.9t-.85.375q-.35 0-.625-.225t-.35-.525l-.375-1.25h-2.525l-.35 1.275q-.075.3-.362.512-.288.213-.613.213Zm1.7-3.55h1.8L12.05 9.1h-.1Zm-8.3-6.9h2.375V2.8H2.8Zm16.025 0H21.2V2.8h-2.375Zm0 16.025H21.2v-2.375h-2.375ZM2.8 21.2h2.375v-2.375H2.8ZM18.825 5.175Zm0 13.65Zm-13.65 0Zm0-13.65Z"/></svg>

<svg xmlns="http://www.w3.org/2000/svg" height="24" width="24"><path d="M2.025 23.475Q1.4 23.475 0.963 23.038Q0.525 22.6 0.525 21.975V18.075Q0.525 17.45 0.963 17.012Q1.4 16.575 2.025 16.575H2.45V7.425H2.025Q1.425 7.425 0.975 6.988Q0.525 6.55 0.525 5.925V2.025Q0.525 1.4 0.963 0.962Q1.4 0.525 2.025 0.525H5.925Q6.55 0.525 6.988 0.962Q7.425 1.4 7.425 2.025V2.45H16.575V2.025Q16.575 1.4 17.012 0.962Q17.45 0.525 18.075 0.525H21.975Q22.6 0.525 23.038 0.962Q23.475 1.4 23.475 2.025V5.925Q23.475 6.55 23.038 6.988Q22.6 7.425 21.975 7.425H21.55V16.575H21.975Q22.6 16.575 23.038 17.012Q23.475 17.45 23.475 18.075V21.975Q23.475 22.6 23.038 23.038Q22.6 23.475 21.975 23.475H18.075Q17.45 23.475 17.012 23.038Q16.575 22.6 16.575 21.975V21.55H7.425V21.975Q7.425 22.575 6.988 23.025Q6.55 23.475 5.925 23.475ZM7.425 18.525H16.575V18.075Q16.575 17.45 17.012 17.012Q17.45 16.575 18.075 16.575H18.525V7.425H18.075Q17.45 7.425 17.012 6.988Q16.575 6.55 16.575 5.925V5.475H7.425V5.925Q7.425 6.55 6.988 6.988Q6.55 7.425 5.925 7.425H5.475V16.575H5.925Q6.55 16.575 6.988 17.012Q7.425 17.45 7.425 18.075ZM9.4 15.625Q8.85 15.625 8.588 15.262Q8.325 14.9 8.525 14.4L10.7 7.925Q10.8 7.525 11.2 7.275Q11.6 7.025 12 7.025Q12.4 7.025 12.775 7.275Q13.15 7.525 13.3 7.925L15.525 14.35Q15.725 14.875 15.45 15.25Q15.175 15.625 14.6 15.625Q14.25 15.625 13.975 15.4Q13.7 15.175 13.625 14.875L13.25 13.625H10.725L10.375 14.9Q10.3 15.2 10.013 15.412Q9.725 15.625 9.4 15.625ZM11.1 12.075H12.9L12.05 9.1H11.95ZM2.8 5.175H5.175V2.8H2.8ZM18.825 5.175H21.2V2.8H18.825ZM18.825 21.2H21.2V18.825H18.825ZM2.8 21.2H5.175V18.825H2.8ZM18.825 5.175ZM18.825 18.825ZM5.175 18.825ZM5.175 5.175Z"/></svg>
